material/.icons/material/watch-export.svg

<svg xmlns="http://www.w3.org/2000/svg" viewBox="0 0 24 24"><path d="M14 11h5l-2.5-2.5 1.42-1.42L22.84 12l-4.92 4.92-1.42-1.42L19 13h-5v-2m-2 7a6 6 0 01-6-6 6 6 0 016-6c1.4 0 2.69.5 3.71 1.29l1.42-1.42-.18-.14L16 0H8l-.95 5.73A7.955 7.955 0 004 12a7.94 7.94 0 003.05 6.27L8 24h8l.95-5.73.18-.14-1.42-1.42A6.066 6.066 0 0112 18z"/></svg>

<?xml version="1.0" encoding="UTF-8"?><!DOCTYPE svg PUBLIC "-//W3C//DTD SVG 1.1//EN" "http://www.w3.org/Graphics/SVG/1.1/DTD/svg11.dtd"><svg xmlns="http://www.w3.org/2000/svg" xmlns:xlink="http://www.w3.org/1999/xlink" version="1.1" id="mdi-watch-export" width="24" height="24" viewBox="0 0 24 24"><path d="M14,11H19L16.5,8.5L17.92,7.08L22.84,12L17.92,16.92L16.5,15.5L19,13H14V11M12,18A6,6 0 0,1 6,12A6,6 0 0,1 12,6C13.4,6 14.69,6.5 15.71,7.29L17.13,5.87L16.95,5.73L16,0H8L7.05,5.73C5.19,7.19 4,9.46 4,12C4,14.55 5.19,16.81 7.05,18.27L8,24H16L16.95,18.27L17.13,18.13L15.71,16.71C14.69,17.5 13.4,18 12,18Z" /></svg>
